src/assets/icons/weeks,fancy,27.svg

<svg width="48" height="48" viewBox="0 0 48 48" fill="none" xmlns="http://www.w3.org/2000/svg">
<rect opacity="0.2" x="4" y="6" width="40" height="40" rx="4" fill="black"/>
<path d="M8.50604 41H23.0231V37.4801H14.4719V37.3409L17.445 34.4276C21.631 30.6094 22.7546 28.7003 22.7546 26.3835C22.7546 22.8537 19.8711 20.358 15.506 20.358C11.2305 20.358 8.29723 22.9134 8.30717 26.9105H12.3938C12.3839 24.9616 13.6168 23.7685 15.4762 23.7685C17.266 23.7685 18.5984 24.8821 18.5984 26.6719C18.5984 28.2926 17.604 29.4062 15.7546 31.1861L8.50604 37.8977V41ZM26.9482 41H31.3928L39.8445 24.206V20.6364H25.5561V24.1562H35.3899V24.2955L26.9482 41Z" fill="black"/>
<g opacity="0.4">
<path d="M10 4C10 2.89543 10.8954 2 12 2C13.1046 2 14 2.89543 14 4V8C14 9.10457 13.1046 10 12 10C10.8954 10 10 9.10457 10 8V4Z" fill="black"/>
<path d="M34 4C34 2.89543 34.8954 2 36 2C37.1046 2 38 2.89543 38 4V8C38 9.10457 37.1046 10 36 10C34.8954 10 34 9.10457 34 8V4Z" fill="black"/>
</g>
<path fill-rule="evenodd" clip-rule="evenodd" d="M10 6.00869C7.52043 6.04456 6.11466 6.22849 5.17157 7.17157C4 8.34315 4 10.2288 4 14V16H44V14C44 10.2288 44 8.34315 42.8284 7.17157C41.8853 6.22849 40.4796 6.04456 38 6.00869V8C38 9.10457 37.1046 10 36 10C34.8954 10 34 9.10457 34 8V6H14V8C14 9.10457 13.1046 10 12 10C10.8954 10 10 9.10457 10 8V6.00869Z" fill="black"/>
</svg>

<svg xmlns="http://www.w3.org/2000/svg" width="48" height="48" fill="none" viewBox="0 0 48 48">
  <rect width="40" height="40" x="4" y="6" fill="#000" opacity=".2" rx="4"/>
  <path fill="#000" d="M8.506 41h14.517v-3.52h-8.551v-.14l2.973-2.912c4.186-3.819 5.31-5.728 5.31-8.044 0-3.53-2.884-6.026-7.249-6.026-4.276 0-7.209 2.555-7.199 6.552h4.087c-.01-1.948 1.223-3.142 3.082-3.142 1.79 0 3.122 1.114 3.122 2.904 0 1.62-.994 2.734-2.843 4.514l-7.249 6.712V41zm18.442 0h4.445l8.451-16.794v-3.57H25.556v3.52h9.834v.14L26.948 41z"/>
  <g opacity=".4">
    <path fill="#000" d="M10 4a2 2 0 114 0v4a2 2 0 11-4 0V4zM34 4a2 2 0 114 0v4a2 2 0 11-4 0V4z"/>
  </g>
  <path fill="#000" fill-rule="evenodd" d="M10 6.009c-2.48.036-3.885.22-4.828 1.163C4 8.343 4 10.229 4 14v2h40v-2c0-3.771 0-5.657-1.172-6.828-.943-.944-2.348-1.127-4.828-1.163V8a2 2 0 11-4 0V6H14v2a2 2 0 11-4 0V6.009z" clip-rule="evenodd"/>
</svg>
